X:1
T:Ave Verum
T:Ave Verum
T:Solo pour Soprano
T:Adolphe Adam
T:by IMSLP
T:by IMSLP
T:by IMSLP
C:Adolphe Adam
Z:by IMSLP
%%score 1 { ( 2 4 ) | ( 3 5 ) }
L:1/8
Q:1/4=53
M:6/8
K:Db
V:1 treble nm="Chant"
V:2 treble nm="Orgue\n"
V:4 treble 
V:3 bass 
V:5 bass 
V:1
"^Andante" z6 | z6 | z6 | z6 | d3{cd} cB A | A3- A FA | d3 =dcd | e3- e GB | e3 =dc d | f3 e2 z | %10
w: ||||A\- ve- * ve\-|rum _ cor- *|pus na\- _ _|tum _ na- *|tum de * Ma\-|ri\- a|
 e2 B B c d | e6 | d3 cB A | A3- A FA | d2 d =dc d | e6 | (_g3 gf) e | d3 d2 =G | A2 d f2 e | %19
w: Ma\- ri\- a Vir\- gi\-|ne|ve\- re * pas\-|sum _ pas- *|sum im\- mo- * la\-|tum|in _ _ cru\-|ce in cru\-|ce pro ho\- mi\-|
 d3- d2 z | z6 | z6 | z6 | d3 c B A | A3- A F A | d2 d =d c d | e3- e2 z | _g3- gf e | d3 d2 =G | %29
w: ne *||||ô Je\- su dul\-|cis _ ô Je\-|su fi\- li Ma\- ri\-|ae _|ô _ _ Je\-|su tu no\-|
 A2 f f2 e | d3- d d d | e2 d z d c | e2 d z d c | e2 d z ef | (_g6 | f3 e3) | (d3 a3- | a3 c2) d | %38
w: bis mi\- se\- re\-|re _ mi\- se\-|re\- re mi\- se\-|re\- re mi\- se\-|re\- re no\- _|bis|_ _|a\- _|_ _ _|
 d2 z z2 z | z6 | !trill(!Tc6- | c6 | d2 z z2 z | z6 | (A3 a3- | !fermata!a3 c3) | (d6- | %47
w: men||a\-|_|men||a\- _|_ _|men|
 d3- d) z z | z6 |] %49
w: _ _||
V:2
!p!!<(! (d'3{/d'} c'ba- | a!<)!"_dim."=g_g-!>(! gfe | d!>)!cB AGE | D) z z z2 z |!pp! (A6 | %5
 A3-) A z z |!<(! ([FA]3!<)!!>(! [FAB]3 | [GB-]3!>)! [GB]) z2 |!pp! e3 =dcd | (([GBf]3 [GBe]2)) z | %10
!>(! (B3- Bcd!>)! |"_dim." edc BcA) |!pp! ([FA]3 [EGA-]3 | [FA-]3 [FA]) z z | %14
!<(! [FA]3 [FAB-]3!<)! |!>(! B6!>)! |"_cresc." B3 c3 | d3 [DE=G]3 | (A6 | [DFA]3- [DFA]) (f=e | %20
!<(! f_gf- fgf- | f_gf- fgf-!<)! |"_dim." f_gf edc) |!pp!!pp! [Fd]3 ([EGA-]3 | [FA-]3 [FA]) z z | %25
!<(! [FA]3 [FAB-]3!<)! |!>(! [GB]6!>)! | B3 c3 | d3 [DE=G]3 | [CFA-]3 [C_GA]3 | %30
 [DFA][DFd][DFd] z [DFd][DFd] | z [DFd][DFd] z [DFd][DFd] |"_cresc." z [DFd][DFd] z [DFd][DFd] | %33
 z [DFd][DFd] z [DFd][DFd] |"_dim." (GDd) (GDd) | (GDd) (GDd) | [DFA]6 | ([CGA-]6 | %38
 [DFA])!>(! (f[dg] [df])([Ae][Ae] | [Ae])([Ac][AB]!>)! [Ac])([EA][D=G] | %40
 [C_GA])[CGA][CGA] [CGA][CGA][CGA] | [CGA][CGA][CGA] [CGA][CGA][CGA] | [DFA] (fg f)(de | %43
"_dim." d)(B!>(!c A)!>)!!>(!(B=G!>)! |!pp! [DFA]3) [FAd]3 | !fermata![EGAc]3 z z2 | [FAd]6- | %47
 [FAd]6- | [FAd]3- [FAd] z z |] %49
V:3
 ([D,F,A,]3 [E,G,A,]3 | [F,A,D]3 [G,B,E]3 | [A,F]) z z [A,,C,G,] z z | (D,A,F, DA,F,) | %4
 ([D,F,]A,D C) z z | (D,A,F, D) z z | (D,F,A,) [B,,=D,]F,B, | (E,B,G, EB,G,) | (E,B,G, F,) z z | %9
 (G,B,E G,) z z | D6 | CDE DEC | F,A,D C z z | (D,A,F, D) z z | (D,A,F, [B,,B,]) z z | %15
 (E,B,G, EB,G,) | (E,B,G, A,,E,A,) | (B,,F,D, B,,B,E,) | (A,F,D, A,,3) | D,A,F, D, z z | %20
 [A,C]3 [CE]3 | [B,D]3 [=A,C]2 [B,D] | [CE]2 z z2 z | ([D,F,]A,D C) z z | (D,A,F, D) z z | %25
 (D,F,A,) (B,,F,A,) | (E,B,G, EB,G,) | (E,B,G,) (A,,E,A,) | (B,,F,D,) (B,,B,G,) | %29
 (A,,F,D, A,,2) z | D, z z [F,,F,]2 z | [G,,G,]2 z [=G,,=G,]2 z | [G,,G,]2 z [=G,,=G,]2 z | %33
 [B,,B,]2 z ([_C,_C]3 | [B,,B,]3 [__B,,__A,]3 | [A,,A,]3 [=A,,=G,]3) | [A,,A,]6- | [A,,A,]6 | %38
 D,[I:staff -1] AB AFG | FED E[I:staff +1](EB, | A,3 E,3 | C,3 A,,3) | D,[K:treble] (AB A)(FA | %43
 F)(DE C)[K:bass] (DB, | A,F,D, A,,3-) | !fermata!A,,3 z z2 | (D,3 A,2 F, | D,3 A,,2 F,, | %48
 D,,3 D,,) z z |] %49
V:4
 x6 | x6 | x6 | x6 | F3 [EG]3 | F3- F x2 | x6 | x6 | [GB]3 [AB]3 | x6 | (E3 =G3) | G6 | x6 | x6 | %14
 x6 | G6- | G6 | F3 x3 | [DF]3 [C_G]3 | x6 | x6 | x6 | x6 | x6 | x6 | x6 | x6 | (G6 | F3) x3 | x6 | %30
 x6 | x6 | x6 | x6 | x6 | x6 | x6 | x6 | x6 | x6 | x6 | x6 | z d2- d A2- | A A2 A F=E | x6 | x6 | %46
 x6 | x6 | x6 |] %49
V:5
 x6 | x6 | x6 | x6 | x6 | x6 | x6 | x6 | x6 | x6 | =G,3 E,3 | A,6 | D,3- D, x2 | x6 | x6 | x6 | %16
 x6 | x6 | x6 | x6 | F,6- | F,6- | F,2 x4 | x6 | x6 | x6 | x6 | x6 | x6 | x6 | x6 | x6 | x6 | x6 | %34
 x6 | x6 | x6 | x6 | x6 | x6 | x6 | x6 | x[K:treble] x5 | x4[K:bass] x2 | x6 | x6 | x6 | x6 | x6 |] %49

